src/images/social/instagram.svg

<svg width="50" height="51" viewBox="0 0 50 51" fill="none" xmlns="http://www.w3.org/2000/svg">
<path d="M25 5.04141C31.675 5.04141 32.4667 5.06641 35.1042 5.18724C41.8792 5.49557 45.0437 8.71016 45.3521 15.4352C45.4729 18.0706 45.4958 18.8622 45.4958 25.5372C45.4958 32.2143 45.4708 33.0039 45.3521 35.6393C45.0417 42.3581 41.8854 45.5789 35.1042 45.8872C32.4667 46.0081 31.6792 46.0331 25 46.0331C18.325 46.0331 17.5333 46.0081 14.8979 45.8872C8.10625 45.5768 4.95833 42.3477 4.65 35.6372C4.52917 33.0018 4.50417 32.2122 4.50417 25.5352C4.50417 18.8602 4.53125 18.0706 4.65 15.4331C4.96042 8.71016 8.11667 5.49349 14.8979 5.18516C17.5354 5.06641 18.325 5.04141 25 5.04141ZM25 0.535156C18.2104 0.535156 17.3604 0.564323 14.6937 0.685156C5.61458 1.10182 0.56875 6.13932 0.152083 15.2268C0.0291667 17.8956 0 18.7456 0 25.5352C0 32.3247 0.0291667 33.1768 0.15 35.8435C0.566667 44.9227 5.60417 49.9685 14.6917 50.3852C17.3604 50.506 18.2104 50.5352 25 50.5352C31.7896 50.5352 32.6417 50.506 35.3083 50.3852C44.3792 49.9685 49.4375 44.931 49.8479 35.8435C49.9708 33.1768 50 32.3247 50 25.5352C50 18.7456 49.9708 17.8956 49.85 15.2289C49.4417 6.15807 44.3979 1.10391 35.3104 0.68724C32.6417 0.564323 31.7896 0.535156 25 0.535156V0.535156ZM25 12.6977C17.9104 12.6977 12.1625 18.4456 12.1625 25.5352C12.1625 32.6247 17.9104 38.3747 25 38.3747C32.0896 38.3747 37.8375 32.6268 37.8375 25.5352C37.8375 18.4456 32.0896 12.6977 25 12.6977ZM25 33.8685C20.3979 33.8685 16.6667 30.1393 16.6667 25.5352C16.6667 20.9331 20.3979 17.2018 25 17.2018C29.6021 17.2018 33.3333 20.9331 33.3333 25.5352C33.3333 30.1393 29.6021 33.8685 25 33.8685ZM38.3458 9.19141C36.6875 9.19141 35.3438 10.5352 35.3438 12.1914C35.3438 13.8477 36.6875 15.1914 38.3458 15.1914C40.0021 15.1914 41.3437 13.8477 41.3437 12.1914C41.3437 10.5352 40.0021 9.19141 38.3458 9.19141Z" fill="#333333" fill-opacity="0.72"/>
</svg>

<svg width="50" height="51" fill="none" xmlns="http://www.w3.org/2000/svg"><path d="M25 5.041c6.675 0 7.467.025 10.104.146 6.775.309 9.94 3.523 10.248 10.248.12 2.636.144 3.427.144 10.102 0 6.677-.025 7.467-.144 10.102-.31 6.72-3.467 9.94-10.248 10.248-2.637.121-3.425.146-10.104.146-6.675 0-7.467-.025-10.102-.146-6.792-.31-9.94-3.54-10.248-10.25-.12-2.635-.146-3.425-.146-10.102 0-6.675.027-7.464.146-10.102.31-6.723 3.467-9.94 10.248-10.248 2.637-.119 3.427-.144 10.102-.144zm0-4.506c-6.79 0-7.64.03-10.306.15C5.614 1.102.569 6.14.152 15.227.03 17.896 0 18.746 0 25.535c0 6.79.03 7.642.15 10.308.417 9.08 5.454 14.125 14.542 14.542 2.668.121 3.518.15 10.308.15s7.642-.029 10.308-.15c9.071-.416 14.13-5.454 14.54-14.541.123-2.667.152-3.52.152-10.309 0-6.79-.03-7.64-.15-10.306-.408-9.07-5.452-14.125-14.54-14.542C32.642.564 31.79.535 25 .535zm0 12.163c-7.09 0-12.838 5.748-12.838 12.837 0 7.09 5.748 12.84 12.838 12.84 7.09 0 12.837-5.748 12.837-12.84 0-7.09-5.747-12.837-12.837-12.837zm0 21.17a8.334 8.334 0 110-16.666 8.334 8.334 0 010 16.666zM38.346 9.191a3.001 3.001 0 100 6 2.999 2.999 0 002.998-3c0-1.656-1.342-3-2.998-3z" fill="#333" fill-opacity=".72"/></svg>
